assets/img/svg/mc.svg

<?xml version="1.0" encoding="UTF-8"?>
<svg width="40px" height="31px" viewBox="0 0 40 31" version="1.1" xmlns="http://www.w3.org/2000/svg" xmlns:xlink="http://www.w3.org/1999/xlink">
    <!-- Generator: Sketch 42 (36781) - http://www.bohemiancoding.com/sketch -->
    <title>mc_vrt_solid_rev</title>
    <desc>Created with Sketch.</desc>
    <defs></defs>
    <g id="Symbols" stroke="none" stroke-width="1" fill="none" fill-rule="evenodd" fill-opacity="0.5">
        <g id="footer" transform="translate(-1189.000000, -285.000000)" fill="#FFFFFF">
            <g id="Group-12" transform="translate(1189.000000, 285.000000)">
                <path d="M19.7858861,2.63309553 C19.6282756,2.75774921 19.4740619,2.88615958 19.323245,3.01832663 C16.74645,5.27233837 15.1153178,8.59085838 15.1153178,12.2946095 C15.1153178,15.9983606 16.74645,19.3165391 19.323245,21.5708923 C19.4740619,21.7030594 19.6282756,21.8311282 19.7858861,21.9557819 C19.9434965,21.8311282 20.0977102,21.7030594 20.2485271,21.5708923 C22.8256618,19.3165391 24.4564544,15.9983606 24.4564544,12.2946095 C24.4564544,8.59085838 22.8256618,5.27233837 20.2485271,3.01832663 C20.0977102,2.88615958 19.9434965,2.75774921 19.7858861,2.63309553 L19.7858861,2.63309553 Z M27.3433751,3.55271368e-15 C24.8399505,3.55271368e-15 22.5124789,0.756801517 20.5739383,2.05490737 C20.6731242,2.13652992 20.7736688,2.21678639 20.8694579,2.30079956 C23.7506041,4.82085299 25.4024567,8.46347257 25.4024567,12.2946095 C25.4024567,16.1257464 23.7506041,19.768366 20.8697976,22.2880779 C20.7743482,22.3717496 20.6731242,22.4526891 20.5739383,22.5343116 C22.5121392,23.8320759 24.8399505,24.589219 27.3433751,24.589219 C34.096847,24.589219 39.5717721,19.0846491 39.5717721,12.2946095 C39.5717721,5.50422837 34.096847,3.55271368e-15 27.3433751,3.55271368e-15 Z M18.7023142,22.2880779 C18.7977636,22.3717496 18.8986479,22.4523475 18.9978338,22.5343116 C17.0596329,23.8324175 14.7321613,24.589219 12.228397,24.589219 C5.47458541,24.589219 0,19.0846491 0,12.2946095 C0,5.50456988 5.47458541,3.55271368e-15 12.228397,3.55271368e-15 C14.7318216,3.55271368e-15 17.0596329,0.756801517 18.9978338,2.05490737 C18.8986479,2.13652992 18.798443,2.21678639 18.7023142,2.30079956 C15.8215077,4.82085299 14.1693154,8.46347257 14.1693154,12.2946095 C14.1693154,16.1260879 15.8215077,19.768366 18.7023142,22.2880779 Z M39.1886157,19.9131692 L39.1886157,19.4357285 L39.064973,19.4357285 L38.9223084,19.7642678 L38.7796437,19.4357285 L38.6556614,19.4357285 L38.6556614,19.9131692 L38.7432982,19.9131692 L38.7432982,19.5532103 L38.8767916,19.8633077 L38.9674855,19.8633077 L39.1013185,19.5525273 L39.1013185,19.9131692 L39.1886157,19.9131692 Z M38.4039602,19.9131692 L38.4039602,19.517351 L38.5625897,19.517351 L38.5625897,19.4367531 L38.1583732,19.4367531 L38.1583732,19.517351 L38.3170027,19.517351 L38.3170027,19.9131692 L38.4039602,19.9131692 Z M38.7860976,30.5275154 L38.7860976,30.6077718 L38.859468,30.6077718 C38.8764519,30.6077718 38.890039,30.6043567 38.8998896,30.5978678 C38.91008,30.591379 38.9148355,30.5811335 38.9148355,30.5671313 C38.9148355,30.5538122 38.91008,30.5439082 38.8998896,30.5374194 C38.890039,30.5309305 38.8764519,30.5275154 38.859468,30.5275154 L38.7860976,30.5275154 Z M38.860487,30.4711651 C38.8988706,30.4711651 38.9284226,30.479703 38.9494826,30.4967788 C38.9702029,30.5141962 38.9807329,30.5374194 38.9807329,30.5671313 C38.9807329,30.5920621 38.972241,30.6128946 38.9555968,30.6289459 C38.9389526,30.6449972 38.9155148,30.6549012 38.8849438,30.6586579 L38.9831107,30.772383 L38.9063435,30.772383 L38.8153099,30.6593409 L38.7860976,30.6593409 L38.7860976,30.772383 L38.7218985,30.772383 L38.7218985,30.4711651 L38.860487,30.4711651 Z M38.8414651,30.8758626 C38.8761122,30.8758626 38.9087213,30.8690323 38.9386129,30.8560546 C38.9688442,30.8427355 38.9949994,30.8246351 39.0177578,30.8017535 C39.0405162,30.7792133 39.0581794,30.7522335 39.0710872,30.721497 C39.083995,30.6907605 39.0904488,30.6579748 39.0904488,30.6227986 C39.0904488,30.5879639 39.083995,30.5551782 39.0710872,30.5244417 C39.0581794,30.4937052 39.0405162,30.4667253 39.0177578,30.4438437 C38.9949994,30.4213036 38.9688442,30.4032032 38.9386129,30.3902256 C38.9087213,30.3772479 38.8761122,30.3707591 38.8414651,30.3707591 C38.8061386,30.3707591 38.7728502,30.3772479 38.7422792,30.3902256 C38.7113685,30.4032032 38.684534,30.4213036 38.6617756,30.4438437 C38.6393568,30.4667253 38.6213539,30.4937052 38.6084462,30.5244417 C38.5955384,30.5551782 38.5890846,30.5879639 38.5890846,30.6227986 C38.5890846,30.6579748 38.5955384,30.6907605 38.6084462,30.721497 C38.6213539,30.7522335 38.6393568,30.7792133 38.6617756,30.8017535 C38.684534,30.8246351 38.7113685,30.8427355 38.7422792,30.8560546 C38.7728502,30.8690323 38.8061386,30.8758626 38.8414651,30.8758626 Z M38.8414651,30.2983575 C38.8866422,30.2983575 38.9294416,30.3068954 38.9691839,30.3239713 C39.0089262,30.3407056 39.043913,30.3639288 39.0734649,30.3936407 C39.1033566,30.4230112 39.1267943,30.4575044 39.1441179,30.4967788 C39.1611018,30.5363948 39.1695937,30.5784014 39.1695937,30.6227986 C39.1695937,30.6675373 39.1611018,30.7092024 39.1441179,30.7484768 C39.1267943,30.7877513 39.1033566,30.8222445 39.0734649,30.8516149 C39.043913,30.8809854 39.0089262,30.9042085 38.9691839,30.9216259 C38.9294416,30.9387017 38.8866422,30.9472397 38.8414651,30.9472397 C38.7949292,30.9472397 38.7517902,30.9387017 38.7113685,30.9216259 C38.6709469,30.9042085 38.6359601,30.8809854 38.6064081,30.8516149 C38.5768562,30.8222445 38.5537581,30.7877513 38.5364345,30.7484768 C38.5194506,30.7092024 38.5109587,30.6675373 38.5109587,30.6227986 C38.5109587,30.5784014 38.5194506,30.5363948 38.5364345,30.4967788 C38.5537581,30.4575044 38.5768562,30.4230112 38.6064081,30.3936407 C38.6359601,30.3639288 38.6709469,30.3407056 38.7113685,30.3239713 C38.7517902,30.3068954 38.7949292,30.2983575 38.8414651,30.2983575 Z M8.55070662,29.139249 C8.55070662,28.5655006 8.92435208,28.0945488 9.53543226,28.0945488 C10.1196779,28.0945488 10.513704,28.5450096 10.513704,29.139249 C10.513704,29.7334885 10.1196779,30.1842908 9.53543226,30.1842908 C8.92435208,30.1842908 8.55070662,29.7129975 8.55070662,29.139249 Z M11.1794723,29.139249 L11.1794723,27.5071396 L10.4729427,27.5071396 L10.4729427,27.9032993 C10.2487554,27.6095947 9.90907772,27.4251756 9.44711606,27.4251756 C8.53711951,27.4251756 7.82379635,28.1423611 7.82379635,29.139249 C7.82379635,30.1364785 8.53711951,30.853664 9.44711606,30.853664 C9.90907772,30.853664 10.2487554,30.6692449 10.4729427,30.3755403 L10.4729427,30.7717 L11.1794723,30.7717 L11.1794723,29.139249 Z M35.0350368,29.139249 C35.0350368,28.5655006 35.4086823,28.0945488 36.0201021,28.0945488 C36.6040081,28.0945488 36.9980342,28.5450096 36.9980342,29.139249 C36.9980342,29.7334885 36.6040081,30.1842908 36.0201021,30.1842908 C35.4086823,30.1842908 35.0350368,29.7129975 35.0350368,29.139249 Z M37.6638025,29.139249 L37.6638025,26.1957146 L36.9572729,26.1957146 L36.9572729,27.9032993 C36.7330856,27.6095947 36.3934079,27.4251756 35.9317859,27.4251756 C35.0214497,27.4251756 34.3081266,28.1423611 34.3081266,29.139249 C34.3081266,30.1364785 35.0214497,30.853664 35.9317859,30.853664 C36.3934079,30.853664 36.7330856,30.6692449 36.9572729,30.3755403 L36.9572729,30.7717 L37.6638025,30.7717 L37.6638025,29.139249 Z M19.9417981,28.0603971 C20.3969662,28.0603971 20.6890891,28.3469298 20.7638181,28.8523748 L19.0793565,28.8523748 C19.1537459,28.3810815 19.4390751,28.0603971 19.9417981,28.0603971 Z M19.9553852,27.4251756 C19.0042877,27.4251756 18.3388591,28.1218701 18.3388591,29.139249 C18.3388591,30.1774605 19.0314619,30.853664 20.0029401,30.853664 C20.492076,30.853664 20.9404505,30.7303764 21.3344767,30.3960313 L20.9880054,29.8700953 C20.7162633,30.0886661 20.369792,30.2116122 20.0437014,30.2116122 C19.5885333,30.2116122 19.1741265,29.9998717 19.0722232,29.4124626 L21.4839349,29.4124626 C21.4907284,29.3236682 21.4971823,29.2348738 21.4971823,29.139249 C21.4907284,28.1218701 20.8657215,27.4251756 19.9553852,27.4251756 Z M28.4802763,29.139249 C28.4802763,28.5655006 28.8535821,28.0945488 29.465002,28.0945488 C30.0492476,28.0945488 30.4432737,28.5450096 30.4432737,29.139249 C30.4432737,29.7334885 30.0492476,30.1842908 29.465002,30.1842908 C28.8535821,30.1842908 28.4802763,29.7129975 28.4802763,29.139249 Z M31.109042,29.139249 L31.109042,27.5071396 L30.4025124,27.5071396 L30.4025124,27.9032993 C30.1783251,27.6095947 29.8386474,27.4251756 29.3766858,27.4251756 C28.4666892,27.4251756 27.7533661,28.1423611 27.7533661,29.139249 C27.7533661,30.1364785 28.4666892,30.853664 29.3766858,30.853664 C29.8386474,30.853664 30.1783251,30.6692449 30.4025124,30.3755403 L30.4025124,30.7717 L31.109042,30.7717 L31.109042,29.139249 Z M24.4927999,29.139249 C24.4927999,30.1296481 25.1789488,30.853664 26.2251561,30.853664 C26.714292,30.853664 27.0400429,30.7443786 27.3933077,30.4643347 L27.05363,29.8905863 C26.7886814,30.0818358 26.5101457,30.1842908 26.2047755,30.1842908 C25.6409105,30.1774605 25.2265037,29.7676402 25.2265037,29.139249 C25.2265037,28.5111994 25.6409105,28.1013791 26.2047755,28.0945488 C26.5101457,28.0945488 26.7886814,28.1966623 27.05363,28.3882533 L27.3933077,27.8145049 C27.0400429,27.534461 26.714292,27.4251756 26.2251561,27.4251756 C25.1789488,27.4251756 24.4927999,28.1491915 24.4927999,29.139249 Z M33.5951431,27.4251756 C33.1875298,27.4251756 32.9225812,27.616425 32.7391553,27.9032993 L32.7391553,27.5071396 L32.0394192,27.5071396 L32.0394192,30.7717 L32.7459488,30.7717 L32.7459488,28.9411692 C32.7459488,28.401914 32.9769297,28.1013791 33.4388913,28.1013791 C33.581556,28.1013791 33.7310142,28.1218701 33.8804723,28.1833432 L34.0978661,27.51397 C33.9412746,27.4524969 33.737468,27.4251756 33.5951431,27.4251756 Z M14.6706797,27.7666925 C14.331002,27.5412913 13.8622467,27.4251756 13.3462763,27.4251756 C12.5242563,27.4251756 11.9943591,27.8213352 11.9943591,28.4698759 C11.9943591,29.0026423 12.3883852,29.3304985 13.1152955,29.4329536 L13.4481796,29.480766 C13.8350725,29.5354087 14.0188382,29.6378638 14.0188382,29.8222829 C14.0188382,30.0750054 13.7603434,30.2184425 13.2783408,30.2184425 C12.7892049,30.2184425 12.4359401,30.0613448 12.1981657,29.8769256 L11.8652816,30.430183 C12.2525141,30.7167157 12.74165,30.853664 13.2715472,30.853664 C14.208718,30.853664 14.7522023,30.409692 14.7522023,29.7881312 C14.7522023,29.2143828 14.3242084,28.9138479 13.6180185,28.8113928 L13.2851343,28.7635804 C12.9794244,28.7225984 12.7348565,28.6614669 12.7348565,28.442896 C12.7348565,28.2038342 12.9658373,28.0603971 13.3530699,28.0603971 C13.7674767,28.0603971 14.1679567,28.2174948 14.3649697,28.3404409 L14.6706797,27.7666925 Z M23.7798164,27.4251756 C23.3722032,27.4251756 23.1072546,27.616425 22.9238286,27.9032993 L22.9238286,27.5071396 L22.2240926,27.5071396 L22.2240926,30.7717 L22.9306222,30.7717 L22.9306222,28.9411692 C22.9306222,28.401914 23.161603,28.1013791 23.6235647,28.1013791 C23.7662293,28.1013791 23.9156875,28.1218701 24.064806,28.1833432 L24.2821997,27.51397 C24.125948,27.4524969 23.9221414,27.4251756 23.7798164,27.4251756 Z M17.7546134,27.5071396 L16.5997093,27.5071396 L16.5997093,26.5167405 L15.8867258,26.5167405 L15.8867258,27.5071396 L15.2277511,27.5071396 L15.2277511,28.1560218 L15.8867258,28.1560218 L15.8867258,29.6446941 C15.8867258,30.4028617 16.1788486,30.853664 17.0141161,30.853664 C17.319826,30.853664 17.6730908,30.7576978 17.8972781,30.6009415 L17.6934715,29.9930414 C17.4828713,30.1159875 17.2518905,30.1774605 17.0684645,30.1774605 C16.7151997,30.1774605 16.5997093,29.9588897 16.5997093,29.6310334 L16.5997093,28.1560218 L17.7546134,28.1560218 L17.7546134,27.5071396 Z M7.19878939,30.7717 L7.19878939,28.7225984 C7.19878939,27.9511116 6.70965351,27.4320059 5.92194094,27.4251756 C5.50753415,27.4183452 5.07954025,27.5481217 4.78062388,28.0057543 C4.5564366,27.6437464 4.2031718,27.4251756 3.70758204,27.4251756 C3.36111079,27.4251756 3.0214331,27.5276306 2.7564845,27.9101296 L2.7564845,27.5071396 L2.04995489,27.5071396 L2.04995489,30.7717 L2.76327805,30.7717 L2.76327805,28.9616602 C2.76327805,28.3947421 3.07578153,28.0945488 3.55812386,28.0945488 C4.0265394,28.0945488 4.26431378,28.401914 4.26431378,28.9548299 L4.26431378,30.7717 L4.97763694,30.7717 L4.97763694,28.9616602 C4.97763694,28.3947421 5.30372753,28.0945488 5.77248275,28.0945488 C6.25482508,28.0945488 6.48546623,28.401914 6.48546623,28.9548299 L6.48546623,30.7717 L7.19878939,30.7717 L7.19878939,30.7717 Z" id="mc_vrt_solid_rev"></path>
            </g>
        </g>
    </g>
</svg>

<svg width="40" height="31" viewBox="0 0 40 31" xmlns="http://www.w3.org/2000/svg"><title>mc_vrt_solid_rev</title><path d="M19.786 2.633a12.29 12.29 0 0 0-4.67 9.662 12.29 12.29 0 0 0 4.67 9.66 12.29 12.29 0 0 0 4.67-9.661 12.289 12.289 0 0 0-4.67-9.66zM27.343 0c-2.503 0-4.83.757-6.77 2.055.1.082.2.162.296.246a13.275 13.275 0 0 1 4.533 9.994c0 3.83-1.651 7.473-4.532 9.993-.096.084-.197.165-.296.246a12.126 12.126 0 0 0 6.77 2.055c6.753 0 12.228-5.504 12.228-12.294C39.572 5.505 34.097 0 27.343 0zm-8.64 22.288c.095.084.196.164.295.246a12.122 12.122 0 0 1-6.77 2.055C5.475 24.59 0 19.085 0 12.295 0 5.505 5.475 0 12.228 0c2.504 0 4.832.757 6.77 2.055-.1.082-.2.162-.296.246a13.276 13.276 0 0 0-4.533 9.994c0 3.831 1.653 7.473 4.533 9.993zm20.486-2.375v-.477h-.124l-.143.328-.142-.328h-.124v.477h.087v-.36l.134.31h.09l.134-.31v.36h.088zm-.785 0v-.396h.159v-.08h-.405v.08h.159v.396h.087zm.382 10.615v.08h.073c.017 0 .031-.004.04-.01.011-.007.016-.017.016-.03 0-.014-.005-.024-.015-.03a.073.073 0 0 0-.04-.01h-.074zm.074-.057c.039 0 .068.009.09.026.02.017.03.04.03.07a.083.083 0 0 1-.024.062.12.12 0 0 1-.071.03l.098.113h-.077l-.09-.113h-.03v.113h-.064v-.3h.138zm-.019.405a.242.242 0 0 0 .177-.074.245.245 0 0 0 .072-.18.251.251 0 0 0-.428-.178.256.256 0 0 0 0 .358.254.254 0 0 0 .18.074zm0-.578a.32.32 0 0 1 .232.096.316.316 0 0 1 .07.355.33.33 0 0 1-.302.198.33.33 0 0 1-.305-.199.316.316 0 0 1 .07-.355.33.33 0 0 1 .235-.095zM8.551 29.14c0-.573.373-1.044.984-1.044.585 0 .979.45.979 1.044 0 .594-.394 1.045-.979 1.045-.61 0-.984-.471-.984-1.045zm2.628 0v-1.632h-.706v.396c-.224-.293-.564-.478-1.026-.478-.91 0-1.623.717-1.623 1.714s.713 1.715 1.623 1.715c.462 0 .802-.185 1.026-.478v.396h.706v-1.633zm23.856 0c0-.573.374-1.044.985-1.044.584 0 .978.45.978 1.044 0 .594-.394 1.045-.978 1.045-.611 0-.985-.471-.985-1.045zm2.629 0v-2.943h-.707v1.707c-.224-.293-.564-.478-1.025-.478-.91 0-1.624.717-1.624 1.714s.713 1.715 1.624 1.715c.461 0 .801-.185 1.025-.478v.396h.707v-1.633zM19.942 28.06c.455 0 .747.287.822.792h-1.685c.075-.47.36-.792.863-.792zm.013-.635c-.95 0-1.616.697-1.616 1.714 0 1.038.692 1.715 1.664 1.715.49 0 .937-.124 1.331-.458l-.346-.526a1.542 1.542 0 0 1-.944.342c-.455 0-.87-.212-.972-.8h2.412c.007-.088.013-.177.013-.273-.006-1.017-.631-1.714-1.542-1.714zm8.525 1.714c0-.573.374-1.044.985-1.044.584 0 .978.45.978 1.044 0 .594-.394 1.045-.978 1.045-.611 0-.985-.471-.985-1.045zm2.629 0v-1.632h-.706v.396c-.225-.293-.564-.478-1.026-.478-.91 0-1.624.717-1.624 1.714s.714 1.715 1.624 1.715c.462 0 .801-.185 1.026-.478v.396h.706v-1.633zm-6.616 0c0 .99.686 1.715 1.732 1.715.49 0 .815-.11 1.168-.39l-.34-.573a1.422 1.422 0 0 1-.848.293c-.564-.007-.978-.416-.978-1.045 0-.628.414-1.038.978-1.044.305 0 .584.102.849.293l.34-.573c-.354-.28-.68-.39-1.169-.39-1.046 0-1.732.724-1.732 1.714zm9.102-1.714c-.407 0-.672.191-.856.478v-.396h-.7v3.265h.707v-1.83c0-.54.23-.84.693-.84.143 0 .292.02.441.081l.218-.669a1.505 1.505 0 0 0-.503-.089zm-18.924.342c-.34-.226-.809-.342-1.325-.342-.822 0-1.352.396-1.352 1.045 0 .533.394.86 1.121.963l.333.048c.387.054.57.157.57.341 0 .253-.258.396-.74.396-.489 0-.842-.157-1.08-.341l-.333.553c.388.287.877.424 1.407.424.937 0 1.48-.444 1.48-1.066 0-.574-.428-.874-1.134-.977l-.333-.047c-.306-.041-.55-.103-.55-.321 0-.24.23-.383.618-.383.414 0 .815.157 1.012.28l.306-.573zm9.109-.342c-.408 0-.673.191-.856.478v-.396h-.7v3.265h.707v-1.83c0-.54.23-.84.693-.84.142 0 .292.02.44.081l.218-.669a1.502 1.502 0 0 0-.502-.089zm-6.025.082H16.6v-.99h-.713v.99h-.66v.649h.66v1.489c0 .758.292 1.209 1.127 1.209.306 0 .66-.096.883-.253l-.204-.608c-.21.123-.441.184-.625.184-.353 0-.468-.218-.468-.546v-1.475h1.155v-.649zM7.199 30.772v-2.05c0-.77-.49-1.29-1.277-1.297-.414-.007-.842.123-1.141.58-.225-.361-.578-.58-1.073-.58-.347 0-.687.103-.952.485v-.403H2.05v3.265h.713v-1.81c0-.567.313-.867.795-.867.469 0 .706.307.706.86v1.817h.714v-1.81c0-.567.326-.867.794-.867.483 0 .713.307.713.86v1.817H7.2z" fill="#FFF" fill-rule="evenodd" fill-opacity=".5"/></svg>
